X: 42696
T: Whistler Of Rosslea, The
R: reel
M: 4/4
K: Gmajor
D2E|:GABc {d}cBBA|fdcA BGGE|FGAB ~c2Bc|(3dcB {c}BA BGAF|
GBAc Bdce|dgfa gfdc|(3Bcd gf dBAc|1 BGAF DGGF:|2 BGAF DGBd||
|:g2dg Bgdg|gbag fdde|~=f2cf Afcf|=fedc AG^FD|
Gg~g2 {a}gfdc|Bcde fd^cd|gfde fdcA|1 ~B2AF DGGf:|2 ~B2AF DGGF||

